telier/img/adv2.svg

<svg width="96" height="96" viewBox="0 0 96 96" fill="none" xmlns="http://www.w3.org/2000/svg">
<path d="M12 22C12 16.4772 16.4772 12 22 12H46C46.5304 12 47.0391 12.2107 47.4142 12.5858L80.626 45.7976C85.1561 50.3276 85.1561 57.6723 80.626 62.2024L62.2024 80.626C57.6723 85.1561 50.3276 85.1561 45.7976 80.626L12.5858 47.4142C12.2107 47.0391 12 46.5304 12 46V22ZM45.1716 16H22C18.6863 16 16 18.6863 16 22V45.1716L48.626 77.7975C51.594 80.7655 56.406 80.7655 59.374 77.7975L77.7975 59.374C80.7655 56.406 80.7655 51.594 77.7975 48.626L45.1716 16ZM32 28C29.7909 28 28 29.7909 28 32C28 34.2091 29.7909 36 32 36C34.2091 36 36 34.2091 36 32C36 29.7909 34.2091 28 32 28ZM32 24C36.4183 24 40 27.5817 40 32C40 36.4183 36.4183 40 32 40C27.5817 40 24 36.4183 24 32C24 27.5817 27.5817 24 32 24Z" fill="#242424"/>
</svg>

<svg width="96" height="96" fill="none" xmlns="http://www.w3.org/2000/svg"><path d="M12 22c0-5.523 4.477-10 10-10h24a2 2 0 011.414.586l33.212 33.212c4.53 4.53 4.53 11.874 0 16.404L62.202 80.626c-4.53 4.53-11.874 4.53-16.404 0L12.586 47.414A2 2 0 0112 46V22zm33.172-6H22a6 6 0 00-6 6v23.172l32.626 32.626a7.6 7.6 0 0010.748 0l18.423-18.424a7.6 7.6 0 000-10.748L45.172 16zM32 28a4 4 0 100 8 4 4 0 000-8zm0-4a8 8 0 110 16 8 8 0 010-16z" fill="#242424"/></svg>
